packages/core/src/svgs/tokens/branded/DPX.svg

<svg width="24" height="24" viewBox="0 0 24 24" fill="none" xmlns="http://www.w3.org/2000/svg">
<path d="M4.87785 8.25631L8.84496 2L2.93171 7.9881C2.43894 8.48087 2.66973 9.32913 3.34964 9.50379L6.4809 10.3085C6.20022 10.7514 5.8821 11.3128 5.63883 11.9053C5.38779 12.4713 5.23992 13.0775 5.2022 13.6955C5.18066 14.0331 5.2294 14.3715 5.34535 14.6894C5.46131 15.0071 5.64196 15.2975 5.87586 15.5418C6.39701 16.0926 7.01972 16.5373 7.70972 16.8517L7.80951 16.9016C8.29841 17.1223 8.7093 17.4853 8.98842 17.9433L9.13811 18.1491C9.71199 18.9601 10.6227 20.2326 11.7891 21.0808C12.4603 21.5905 13.2588 21.9056 14.0971 21.9915C15.0887 22.0535 16.072 21.7763 16.8853 21.2055C17.7959 20.6068 18.3947 19.9456 18.6817 19.1784C18.9248 18.4531 18.9204 17.6678 18.6692 16.9453C18.482 16.3152 18.1701 15.6666 17.8708 15.0678L17.8146 14.9556C17.4861 14.3238 17.2087 13.6666 16.985 12.9907C16.5859 11.6808 16.8602 11.1193 17.0225 10.8949C17.1276 10.7598 17.2679 10.6562 17.4279 10.5954L17.4341 10.5893H17.4529L17.484 10.5767L17.6275 10.5268L18.0017 10.4021C18.9345 10.0857 19.866 9.76547 20.7962 9.44149C20.8409 9.42286 20.8845 9.40205 20.9272 9.37905C20.9896 9.34165 21.0519 9.29799 21.1018 9.24806C21.42 8.92375 21.3201 8.53078 21.3076 8.48712C21.2807 8.3786 21.2319 8.27673 21.1643 8.1877L21.0832 8.0879L20.8835 7.86334C18.9845 5.90358 17.0799 3.94913 15.1699 2L19.162 8.33741C18.4876 8.57019 17.8118 8.79892 17.1347 9.02355L17.0163 9.06097H17.0037C16.8598 9.10194 16.7215 9.16059 16.592 9.23569C16.274 9.40409 15.9995 9.64729 15.7812 9.9343C15.2198 10.6703 14.9827 11.8056 15.4818 13.4585C15.7313 14.2631 16.0931 15.0053 16.4112 15.6603L16.4424 15.7227C16.7543 16.3714 17.0225 16.9079 17.1721 17.4068C17.3197 17.7969 17.333 18.2249 17.2095 18.6233C17.0848 18.9663 16.7729 19.3842 16.0306 19.8707C15.5065 20.2506 14.8683 20.4398 14.2218 20.4072C13.6669 20.3429 13.1403 20.127 12.6999 19.7834C11.7516 19.0973 10.997 18.0369 10.3918 17.201L10.2547 17.0139C9.82348 16.3455 9.21132 15.8134 8.48942 15.4795L8.38338 15.4171C7.85584 15.1807 7.3808 14.8415 6.98616 14.4191C6.84269 14.2756 6.7616 14.0761 6.77407 13.7454C6.78031 13.3961 6.89883 12.9782 7.08596 12.5228C7.46021 11.6121 8.05902 10.7576 8.29605 10.4332C8.68902 9.90301 8.40833 9.16074 7.79704 9.00483L4.87785 8.25631ZM11.4897 14.7496C11.4897 14.7496 10.2796 14.7496 9.4749 14.0011C8.67031 13.2527 9.4749 11.7494 9.4749 11.7494C9.4749 11.7494 9.71199 11.8991 10.5978 12.9471C11.4897 14.0011 11.4897 14.7496 11.4897 14.7496Z" fill="url(#paint0_linear_364_14299)"/>
<defs>
<linearGradient id="paint0_linear_364_14299" x1="12.0324" y1="11.0134" x2="12.0013" y2="22.004" gradientUnits="userSpaceOnUse">
<stop stop-color="#22E1FF"/>
<stop offset="1" stop-color="#002EFF"/>
</linearGradient>
</defs>
</svg>

<svg xmlns="http://www.w3.org/2000/svg" width="24" height="24" fill="none" viewBox="0 0 24 24">
    <path fill="url(#DPX__a)" d="M4.878 8.256 8.845 2 2.932 7.988a.906.906 0 0 0 .418 1.516l3.13.805c-.28.442-.598 1.004-.841 1.596a5.2 5.2 0 0 0-.437 1.79 2.45 2.45 0 0 0 .674 1.847c.521.55 1.144.995 1.834 1.31l.1.05c.488.22.9.583 1.178 1.041l.15.206c.574.811 1.485 2.084 2.651 2.932a4.6 4.6 0 0 0 2.308.91 4.38 4.38 0 0 0 2.788-.785c.91-.6 1.51-1.26 1.797-2.028a3.46 3.46 0 0 0-.013-2.233c-.187-.63-.499-1.278-.798-1.877l-.056-.112a13.4 13.4 0 0 1-.83-1.965c-.4-1.31-.125-1.872.038-2.096a.93.93 0 0 1 .405-.3l.006-.006h.019l.031-.012.143-.05.375-.125q1.4-.475 2.794-.96.067-.03.131-.063a1 1 0 0 0 .175-.13.8.8 0 0 0 .206-.762.8.8 0 0 0-.144-.3l-.08-.1-.2-.224Q18.034 4.923 15.17 2l3.992 6.337q-1.011.35-2.027.687l-.119.037h-.012q-.217.061-.412.175a2.5 2.5 0 0 0-.81.698c-.562.736-.8 1.872-.3 3.525.25.804.611 1.546.93 2.201l.03.063c.312.648.58 1.185.73 1.684.148.39.161.818.037 1.216-.124.343-.436.761-1.178 1.248a2.84 2.84 0 0 1-1.81.536 3.04 3.04 0 0 1-1.521-.624c-.948-.686-1.703-1.746-2.308-2.582l-.137-.187a4.2 4.2 0 0 0-1.766-1.534l-.106-.063a4.3 4.3 0 0 1-1.397-.998c-.143-.143-.224-.343-.212-.674.006-.349.125-.767.312-1.222.374-.91.973-1.765 1.21-2.09a.913.913 0 0 0-.499-1.428zm6.612 6.494s-1.21 0-2.015-.749c-.805-.748 0-2.252 0-2.252s.237.15 1.123 1.198c.892 1.054.892 1.803.892 1.803"/>
    <defs>
        <linearGradient id="DPX__a" x1="12.032" x2="12.001" y1="11.013" y2="22.004" gradientUnits="userSpaceOnUse">
            <stop stop-color="#22E1FF"/>
            <stop offset="1" stop-color="#002EFF"/>
        </linearGradient>
    </defs>
</svg>
